X:218
T: WER BEKUEMMERT SICH
N: E1357
O: Europa, Mitteleuropa, Deutschland, Thueringen; Sachsen; Elsass;
R: Staende -, Soldaten -, Kriegs - Lied
M: 3/8
L: 1/16
K: G
DD | G3GAA | B2B2
GB | d3Bc2d2 | B4z2
GB | d2d2ed | dcc2
dc | B2B2dB | BAA2
GB | d3Bc2d2 | B4z2

